X: 41124
T: Trip To The Doryman
R: jig
M: 6/8
K: Aminor
|:E|AGA c2 A|BAG ABc|GED EGD|EGE DB,D|
AGA c2 A|BAG efg|fed egB|BAG A2:|
|:B|AaA a2 g|fed efg|BAG g2 d|fge dBG|
ABA f/g/ag|fed efg|BAG egB|BAG A2:|

